; Created by Sandify
; 
;   https://sandify.org
; 
;   Sandify Version: 0.1.8
; 
;   Machine Type: Polar
;     Max Radius: 250
;     Force Endpoints: false
;   Content Type: Unknown
;   Path Reversed: false
; 
; filename: 'sandifygcodemasni'

; BEGIN PRE
; END PRE
G01 X500.000 Y250.000
G01 X499.699 Y262.252
G01 X498.796 Y274.386
G01 X497.294 Y286.286
G01 X495.196 Y297.835
G01 X492.508 Y308.925
G01 X489.235 Y319.446
G01 X485.386 Y329.299
G01 X480.970 Y338.388
G01 X475.997 Y346.626
G01 X470.480 Y353.934
G01 X464.432 Y360.240
G01 X457.867 Y365.485
G01 X450.802 Y369.618
G01 X443.253 Y372.598
G01 X435.238 Y374.398
G01 X426.777 Y375.000
G01 X417.890 Y374.398
G01 X408.598 Y372.598
G01 X398.925 Y369.618
G01 X388.893 Y365.485
G01 X378.526 Y360.240
G01 X367.849 Y353.934
G01 X356.889 Y346.626
G01 X345.671 Y338.388
G01 X334.222 Y329.299
G01 X322.571 Y319.446
G01 X310.745 Y308.925
G01 X298.773 Y297.835
G01 X286.683 Y286.286
G01 X274.504 Y274.386
G01 X262.267 Y262.252
G01 X250.000 Y250.000
G01 X237.733 Y237.748
G01 X225.496 Y225.614
G01 X213.317 Y213.714
G01 X201.227 Y202.165
G01 X189.255 Y191.075
G01 X177.429 Y180.554
G01 X165.778 Y170.701
G01 X154.329 Y161.612
G01 X143.111 Y153.374
G01 X132.151 Y146.066
G01 X121.474 Y139.760
G01 X111.107 Y134.515
G01 X101.075 Y130.382
G01 X91.402 Y127.402
G01 X82.110 Y125.602
G01 X73.223 Y125.000
G01 X64.762 Y125.602
G01 X56.747 Y127.402
G01 X49.198 Y130.382
G01 X42.133 Y134.515
G01 X35.568 Y139.760
G01 X29.520 Y146.066
G01 X24.003 Y153.374
G01 X19.030 Y161.612
G01 X14.614 Y170.701
G01 X10.765 Y180.554
G01 X7.492 Y191.075
G01 X4.804 Y202.165
G01 X2.706 Y213.714
G01 X1.204 Y225.614
G01 X0.301 Y237.748
G01 X0.000 Y250.000
G01 X0.301 Y262.252
G01 X1.204 Y274.386
G01 X2.706 Y286.286
G01 X4.804 Y297.835
G01 X7.492 Y308.925
G01 X10.765 Y319.446
G01 X14.614 Y329.299
G01 X19.030 Y338.388
G01 X24.003 Y346.626
G01 X29.520 Y353.934
G01 X35.568 Y360.240
G01 X42.133 Y365.485
G01 X49.198 Y369.618
G01 X56.747 Y372.598
G01 X64.762 Y374.398
G01 X73.223 Y375.000
G01 X82.110 Y374.398
G01 X91.402 Y372.598
G01 X101.075 Y369.618
G01 X111.107 Y365.485
G01 X121.474 Y360.240
G01 X132.151 Y353.934
G01 X143.111 Y346.626
G01 X154.329 Y338.388
G01 X165.778 Y329.299
G01 X177.429 Y319.446
G01 X189.255 Y308.925
G01 X201.227 Y297.835
G01 X213.317 Y286.286
G01 X225.496 Y274.386
G01 X237.733 Y262.252
G01 X250.000 Y250.000
G01 X262.267 Y237.748
G01 X274.504 Y225.614
G01 X286.683 Y213.714
G01 X298.773 Y202.165
G01 X310.745 Y191.075
G01 X322.571 Y180.554
G01 X334.222 Y170.701
G01 X345.671 Y161.612
G01 X356.889 Y153.374
G01 X367.849 Y146.066
G01 X378.526 Y139.760
G01 X388.893 Y134.515
G01 X398.925 Y130.382
G01 X408.598 Y127.402
G01 X417.890 Y125.602
G01 X426.777 Y125.000
G01 X435.238 Y125.602
G01 X443.253 Y127.402
G01 X450.802 Y130.382
G01 X457.867 Y134.515
G01 X464.432 Y139.760
G01 X470.480 Y146.066
G01 X475.997 Y153.374
G01 X480.970 Y161.612
G01 X485.386 Y170.701
G01 X489.235 Y180.554
G01 X492.508 Y191.075
G01 X495.196 Y202.165
G01 X497.294 Y213.714
G01 X498.796 Y225.614
G01 X499.699 Y237.748

; BEGIN POST
; END POST
